images/logo.svg

<svg fill="none" height="86" viewBox="0 0 232 86" width="232" xmlns="http://www.w3.org/2000/svg"><g fill="#acacc8"><path d="m43.4904 0c-23.8474 0-42.852705 19.0053-42.852705 42.7316 0 23.6053 18.884205 42.7316 42.731605 42.7316 23.6053 0 42.7316-19.0052 42.7316-42.7316-.121-23.6053-19.0052-42.7316-42.6105-42.7316zm-.1211 81.7106c-21.6684 0-38.85792-17.4316-38.85792-38.8579 0-21.6685 17.31052-38.97901 38.97902-38.97901 21.5474 0 38.7368 17.43161 38.8579 38.85791-.1211 21.6685-17.5526 38.979-38.979 38.979z"/><path d="m47.1222 55.9263c-.3632.2421-.7263.4842-1.0895.6053-3.0263 1.5737-6.1737 2.1789-9.5632 1.5737-6.6579-1.2105-11.1368-5.2053-12.7105-11.7421-1.5737-6.4158.4842-11.9843 5.6895-15.979 5.4474-4.1158 11.2579-4.3579 17.3105-1.0895 2.179 1.2106 3.9948.8474 4.8421-.8473.9685-1.6948.2421-3.3895-1.9368-4.6-7.8684-4.1158-15.6158-4.1158-23 .8473-7.5053 5.0842-10.6527 12.3474-9.3211 21.3053.4842 3.1474 1.9369 6.2948 3.1474 9.6842-2.179 2.3-4.8421 4.8421-6.1737 8.7158.8474-.2421 1.0895-.2421 1.4526-.3631.4842-.2421.9684-.4842 1.4527-.7263 4.3579-2.3 8.5947-2.4211 13.1947-.4843 6.779 2.9053 13.5579 2.3 19.9737-1.5736 1.8158-1.0895 2.179-2.7843 1.3316-4.3579-.9684-1.5737-2.7842-1.9369-4.6-.9685z"/><path d="m67.0956 42.9737c-.4842-5.3263-4.8421-9.8052-10.5316-9.8052-6.6579 0-10.6526 5.6894-10.5315 10.5315-.1211 5.8106 4.8421 11.1369 11.3789 10.6527 5.4474-.4842 10.1685-5.3263 9.6842-11.379zm-7.3842 2.7842v1.4527h-5.6895c0-.7263.2421-1.3316.6053-1.9369.3632-.6052.8474-1.0894 1.4526-1.4526.6053-.3632 1.2106-.8474 1.6948-1.2105.2421-.2421.3631-.4842.4842-.9684 0-.7264-.3632-1.2106-1.2105-1.2106-.8474 0-1.3316.6053-1.3316 1.6948h-.8474c-.4842 0-.7263-.2421-.6053-.9685.2422-1.3315 1.2106-2.0579 2.7843-2.0579 1.8157 0 2.6631.8474 2.7842 2.5422 0 .6052-.2421 1.0894-.4842 1.4526-.2421.3631-1.0895 1.0895-2.4211 2.0579-.3632.2421-.6053.4842-.6053.7263h3.3895z"/><path d="m56.0799 30.9895c.7263.4842 1.5737 0 1.5737-.9684 0-.9685 0-1.8158 0-2.7843 0-.9684 0-1.8157 0-2.7842 0-.7263-.4842-1.0894-1.0895-1.0894-.6052 0-.9684.4842-.9684 1.0894v5.6895c0 .2421.2421.7263.4842.8474z"/><path d="m69.6377 29.2948c-1.3316 1.3316-2.6632 2.6632-3.9948 3.9947-.2421.2421-.3631.7263-.3631.9685.121.8473 1.0895 1.0894 1.8158.3631.7263-.6053 1.3316-1.3316 1.9368-1.9368.6053-.6053 1.3316-1.3316 1.9369-2.0579.4842-.4842.4842-1.0895.121-1.5737-.3631-.1211-.9684-.1211-1.4526.2421z"/><path d="m69.5166 43.3369c-.4842.6053 0 1.5737.9684 1.5737h2.7843 2.7842c.7263 0 1.2105-.4842 1.2105-1.0895 0-.6052-.4842-.9684-1.0895-.9684-1.9368 0-3.7526 0-5.6895 0-.3631 0-.7263.1211-.9684.4842z"/><path d="m67.2167 52.9001c-.2421-.2421-.7263-.3632-.9684-.3632-.8474.1211-1.0895 1.0895-.3632 1.8158.6053.7263 1.3316 1.3316 1.9369 1.9369.7263.6052 1.3316 1.3315 2.0579 1.9368.4842.4842 1.0895.4842 1.5737.1211.3631-.3632.3631-1.0895 0-1.4527-1.5737-1.3316-2.9053-2.6631-4.2369-3.9947z"/><path d="m56.5641 56.2895c-.6052 0-.9684.3631-.9684 1.0895v5.4473c0 .3632.2421.7264.4842.9685s.7263.2421.9684.121c.4842-.121.6053-.6053.6053-.9684 0-.9684 0-1.8158 0-2.7842s0-1.8158 0-2.7842c0-.7264-.4842-1.0895-1.0895-1.0895z"/><path d="m116.364 30.1421c-2.905 0-5.084.6053-6.658 1.8158-1.573-1.2105-3.752-1.9368-6.657-1.9368-6.2952 0-9.5636 3.1473-9.5636 9.4421v13.0737h5.6894v-14.1632c0-2.3 1.3312-3.3895 3.7522-3.3895 2.422 0 3.753 1.0895 3.874 3.3895v14.1632h5.569v-14.0422c0-2.3 1.331-3.3894 3.752-3.3894s3.753 1.0894 3.874 3.3894v11.379c0 1.8158.968 2.6632 2.784 2.7842h2.905v-13.0737c.242-6.2947-2.905-9.4421-9.321-9.4421z"/><path d="m131.98 24.0895h-2.905v4.3579h5.568v-1.6947c0-1.8158-.847-2.6632-2.663-2.6632z"/><path d="m131.98 30.3842h-2.905v22.1527h5.568v-19.4895c0-1.8158-.847-2.6632-2.663-2.6632z"/><path d="m147.838 38.7369c-2.906-.6053-4.358-1.4527-4.358-2.5421 0-1.0895 1.089-1.6948 3.268-1.6948 1.816 0 3.027.6053 3.39 1.4527.363.8473 1.21 1.3315 2.421 1.3315h3.51c-.121-2.3-.968-4.1158-2.663-5.4473-1.695-1.2106-3.995-1.9369-6.779-1.9369-5.084.1211-8.837 2.3-8.837 7.1421 0 3.5106 2.542 5.6895 7.506 6.5369 3.873.7263 5.689 1.5737 5.689 2.7842 0 1.4526-1.21 2.0579-3.51 2.0579-2.785 0-4.479-.8474-4.6-3.2684h-5.69c0 2.5421.847 4.4789 2.542 5.6894 1.453 1.3316 3.874 1.9369 7.021 1.9369 5.932 0 10.169-2.0579 10.169-7.5053 0-1.4526-.485-2.9052-1.574-3.9947-1.332-.8474-3.753-1.8158-7.505-2.5421z"/><path d="m169.264 38.7369c-2.905-.6053-4.358-1.4527-4.358-2.5421 0-1.0895 1.09-1.6948 3.268-1.6948 1.816 0 3.027.6053 3.39 1.4527.363.8473 1.21 1.3315 2.421 1.3315h3.511c-.121-2.3-.969-4.1158-2.664-5.4473-1.694-1.2106-3.994-1.9369-6.779-1.9369-5.084.1211-8.836 2.3-8.836 7.1421 0 3.5106 2.542 5.6895 7.505 6.5369 3.874.7263 5.689 1.5737 5.689 2.7842 0 1.4526-1.21 2.0579-3.51 2.0579-2.784 0-4.479-.8474-4.6-3.2684h-5.69c0 2.5421.848 4.4789 2.542 5.6894 1.453 1.3316 3.874 1.9369 7.021 1.9369 5.932 0 10.169-2.0579 10.169-7.5053 0-1.4526-.484-2.9052-1.574-3.9947-1.331-.8474-3.752-1.8158-7.505-2.5421z"/><path d="m183.548 24.0895h-2.905v4.3579h5.569v-1.6947c.121-1.8158-.727-2.6632-2.664-2.6632z"/><path d="m183.548 30.3842h-2.905v22.1527h5.568v-19.4895c.122-1.8158-.847-2.6632-2.663-2.6632z"/><path d="m199.285 30.0211c-6.658 0-10.047 3.8736-10.047 11.5 0 7.6263 3.389 11.5 10.047 11.5s10.169-3.8737 10.169-11.5c0-7.6264-3.39-11.5-10.169-11.5zm0 18.0368c-2.905 0-4.358-2.1789-4.358-6.5368s1.453-6.6579 4.358-6.6579 4.237 2.1789 4.237 6.4158c0 4.6-1.332 6.7789-4.237 6.7789z"/><path d="m221.68 30.0211c-6.295 0-9.563 3.1473-9.563 9.4421v13.0737h5.689v-14.1632c0-2.3 1.332-3.3895 3.753-3.3895s3.752 1.0895 3.874 3.3895v11.379c0 1.8157.968 2.6631 2.784 2.7842h2.905v-12.9527c0-6.4158-3.147-9.5631-9.442-9.5631z"/></g></svg>

<svg width="232" height="86" viewBox="0 0 232 86" fill="none" xmlns="http://www.w3.org/2000/svg">
<path d="M43.4904 0C19.643 0 0.637695 19.0053 0.637695 42.7316C0.637695 66.3369 19.5219 85.4632 43.3693 85.4632C66.9746 85.4632 86.1009 66.458 86.1009 42.7316C85.9799 19.1263 67.0957 0 43.4904 0ZM43.3693 81.7106C21.7009 81.7106 4.51138 64.279 4.51138 42.8527C4.51138 21.1842 21.8219 3.87369 43.4904 3.87369C65.0378 3.87369 82.2272 21.3053 82.3483 42.7316C82.2272 64.4001 64.7957 81.7106 43.3693 81.7106Z" fill="#ACACC8"/>
<path d="M47.1222 55.9263C46.759 56.1684 46.3959 56.4105 46.0327 56.5316C43.0064 58.1053 39.859 58.7105 36.4695 58.1053C29.8116 56.8948 25.3327 52.9 23.759 46.3632C22.1853 39.9474 24.2432 34.3789 29.4485 30.3842C34.8959 26.2684 40.7064 26.0263 46.759 29.2947C48.938 30.5053 50.7538 30.1421 51.6011 28.4474C52.5696 26.7526 51.8432 25.0579 49.6643 23.8474C41.7959 19.7316 34.0485 19.7316 26.6643 24.6947C19.159 29.7789 16.0116 37.0421 17.3432 46C17.8274 49.1474 19.2801 52.2948 20.4906 55.6842C18.3116 57.9842 15.6485 60.5263 14.3169 64.4C15.1643 64.1579 15.4064 64.1579 15.7695 64.0369C16.2537 63.7948 16.7379 63.5527 17.2222 63.3106C21.5801 61.0106 25.8169 60.8895 30.4169 62.8263C37.1959 65.7316 43.9748 65.1263 50.3906 61.2527C52.2064 60.1632 52.5696 58.4684 51.7222 56.8948C50.7538 55.3211 48.938 54.9579 47.1222 55.9263Z" fill="#ACACC8"/>
<path d="M67.0956 42.9737C66.6114 37.6474 62.2535 33.1685 56.564 33.1685C49.9061 33.1685 45.9114 38.8579 46.0325 43.7C45.9114 49.5106 50.8746 54.8369 57.4114 54.3527C62.8588 53.8685 67.5799 49.0264 67.0956 42.9737ZM59.7114 45.7579V47.2106H54.0219C54.0219 46.4843 54.264 45.879 54.6272 45.2737C54.9904 44.6685 55.4746 44.1843 56.0798 43.8211C56.6851 43.4579 57.2904 42.9737 57.7746 42.6106C58.0167 42.3685 58.1377 42.1264 58.2588 41.6422C58.2588 40.9158 57.8956 40.4316 57.0483 40.4316C56.2009 40.4316 55.7167 41.0369 55.7167 42.1264H54.8693C54.3851 42.1264 54.143 41.8843 54.264 41.1579C54.5062 39.8264 55.4746 39.1 57.0483 39.1C58.864 39.1 59.7114 39.9474 59.8325 41.6422C59.8325 42.2474 59.5904 42.7316 59.3483 43.0948C59.1062 43.4579 58.2588 44.1843 56.9272 45.1527C56.564 45.3948 56.3219 45.6369 56.3219 45.879H59.7114V45.7579Z" fill="#ACACC8"/>
<path d="M56.0799 30.9895C56.8062 31.4737 57.6536 30.9895 57.6536 30.0211C57.6536 29.0526 57.6536 28.2053 57.6536 27.2368C57.6536 26.2684 57.6536 25.4211 57.6536 24.4526C57.6536 23.7263 57.1694 23.3632 56.5641 23.3632C55.9589 23.3632 55.5957 23.8474 55.5957 24.4526C55.5957 26.2684 55.5957 28.2053 55.5957 30.1421C55.5957 30.3842 55.8378 30.8684 56.0799 30.9895Z" fill="#ACACC8"/>
<path d="M69.6377 29.2948C68.3061 30.6264 66.9745 31.958 65.6429 33.2895C65.4008 33.5316 65.2798 34.0158 65.2798 34.258C65.4008 35.1053 66.3693 35.3474 67.0956 34.6211C67.8219 34.0158 68.4272 33.2895 69.0324 32.6843C69.6377 32.079 70.364 31.3527 70.9693 30.6264C71.4535 30.1422 71.4535 29.5369 71.0903 29.0527C70.7272 28.9316 70.1219 28.9316 69.6377 29.2948Z" fill="#ACACC8"/>
<path d="M69.5166 43.3369C69.0324 43.9422 69.5166 44.9106 70.485 44.9106C71.4535 44.9106 72.3008 44.9106 73.2693 44.9106C74.2377 44.9106 75.2061 44.9106 76.0535 44.9106C76.7798 44.9106 77.264 44.4264 77.264 43.8211C77.264 43.2159 76.7798 42.8527 76.1745 42.8527C74.2377 42.8527 72.4219 42.8527 70.485 42.8527C70.1219 42.8527 69.7587 42.9738 69.5166 43.3369Z" fill="#ACACC8"/>
<path d="M67.2167 52.9001C66.9746 52.658 66.4904 52.5369 66.2483 52.5369C65.4009 52.658 65.1588 53.6264 65.8851 54.3527C66.4904 55.079 67.2167 55.6843 67.822 56.2896C68.5483 56.8948 69.1536 57.6211 69.8799 58.2264C70.3641 58.7106 70.9694 58.7106 71.4536 58.3475C71.8167 57.9843 71.8167 57.258 71.4536 56.8948C69.8799 55.5632 68.5483 54.2317 67.2167 52.9001Z" fill="#ACACC8"/>
<path d="M56.5641 56.2895C55.9589 56.2895 55.5957 56.6526 55.5957 57.379C55.5957 59.1948 55.5957 61.0105 55.5957 62.8263C55.5957 63.1895 55.8378 63.5527 56.0799 63.7948C56.322 64.0369 56.8062 64.0369 57.0483 63.9158C57.5325 63.7948 57.6536 63.3105 57.6536 62.9474C57.6536 61.979 57.6536 61.1316 57.6536 60.1632C57.6536 59.1948 57.6536 58.3474 57.6536 57.379C57.6536 56.6526 57.1694 56.2895 56.5641 56.2895Z" fill="#ACACC8"/>
<path d="M116.364 30.1421C113.459 30.1421 111.28 30.7474 109.706 31.9579C108.133 30.7474 105.954 30.0211 103.049 30.0211C96.7538 30.0211 93.4854 33.1684 93.4854 39.4632V52.5369H99.1748V38.3737C99.1748 36.0737 100.506 34.9842 102.927 34.9842C105.349 34.9842 106.68 36.0737 106.801 38.3737V52.5369H112.37V38.4947C112.37 36.1947 113.701 35.1053 116.122 35.1053C118.543 35.1053 119.875 36.1947 119.996 38.4947V49.8737C119.996 51.6895 120.964 52.5369 122.78 52.6579H125.685V39.5842C125.927 33.2895 122.78 30.1421 116.364 30.1421Z" fill="#ACACC8"/>
<path d="M131.98 24.0895H129.075V28.4474H134.643V26.7527C134.643 24.9369 133.796 24.0895 131.98 24.0895Z" fill="#ACACC8"/>
<path d="M131.98 30.3842H129.075V52.5369H134.643V33.0474C134.643 31.2316 133.796 30.3842 131.98 30.3842Z" fill="#ACACC8"/>
<path d="M147.838 38.7369C144.932 38.1316 143.48 37.2842 143.48 36.1948C143.48 35.1053 144.569 34.5 146.748 34.5C148.564 34.5 149.775 35.1053 150.138 35.9527C150.501 36.8 151.348 37.2842 152.559 37.2842H156.069C155.948 34.9842 155.101 33.1684 153.406 31.8369C151.711 30.6263 149.411 29.9 146.627 29.9C141.543 30.0211 137.79 32.2 137.79 37.0421C137.79 40.5527 140.332 42.7316 145.296 43.579C149.169 44.3053 150.985 45.1527 150.985 46.3632C150.985 47.8158 149.775 48.4211 147.475 48.4211C144.69 48.4211 142.996 47.5737 142.875 45.1527H137.185C137.185 47.6948 138.032 49.6316 139.727 50.8421C141.18 52.1737 143.601 52.779 146.748 52.779C152.68 52.779 156.917 50.7211 156.917 45.2737C156.917 43.8211 156.432 42.3685 155.343 41.279C154.011 40.4316 151.59 39.4632 147.838 38.7369Z" fill="#ACACC8"/>
<path d="M169.264 38.7369C166.359 38.1316 164.906 37.2842 164.906 36.1948C164.906 35.1053 165.996 34.5 168.174 34.5C169.99 34.5 171.201 35.1053 171.564 35.9527C171.927 36.8 172.774 37.2842 173.985 37.2842H177.496C177.375 34.9842 176.527 33.1684 174.832 31.8369C173.138 30.6263 170.838 29.9 168.053 29.9C162.969 30.0211 159.217 32.2 159.217 37.0421C159.217 40.5527 161.759 42.7316 166.722 43.579C170.596 44.3053 172.411 45.1527 172.411 46.3632C172.411 47.8158 171.201 48.4211 168.901 48.4211C166.117 48.4211 164.422 47.5737 164.301 45.1527H158.611C158.611 47.6948 159.459 49.6316 161.153 50.8421C162.606 52.1737 165.027 52.779 168.174 52.779C174.106 52.779 178.343 50.7211 178.343 45.2737C178.343 43.8211 177.859 42.3685 176.769 41.279C175.438 40.4316 173.017 39.4632 169.264 38.7369Z" fill="#ACACC8"/>
<path d="M183.548 24.0895H180.643V28.4474H186.212V26.7527C186.333 24.9369 185.485 24.0895 183.548 24.0895Z" fill="#ACACC8"/>
<path d="M183.548 30.3842H180.643V52.5369H186.211V33.0474C186.333 31.2316 185.364 30.3842 183.548 30.3842Z" fill="#ACACC8"/>
<path d="M199.285 30.0211C192.627 30.0211 189.238 33.8947 189.238 41.5211C189.238 49.1474 192.627 53.0211 199.285 53.0211C205.943 53.0211 209.454 49.1474 209.454 41.5211C209.454 33.8947 206.064 30.0211 199.285 30.0211ZM199.285 48.0579C196.38 48.0579 194.927 45.879 194.927 41.5211C194.927 37.1632 196.38 34.8632 199.285 34.8632C202.19 34.8632 203.522 37.0421 203.522 41.279C203.522 45.879 202.19 48.0579 199.285 48.0579Z" fill="#ACACC8"/>
<path d="M221.68 30.0211C215.385 30.0211 212.117 33.1684 212.117 39.4632V52.5369H217.806V38.3737C217.806 36.0737 219.138 34.9842 221.559 34.9842C223.98 34.9842 225.311 36.0737 225.433 38.3737V49.7527C225.433 51.5684 226.401 52.4158 228.217 52.5369H231.122V39.5842C231.122 33.1684 227.975 30.0211 221.68 30.0211Z" fill="#ACACC8"/>
</svg>
